frontend/public/svg/hand gestures/screen-rotate.svg

<svg width="106" height="163" viewBox="0 0 106 163" fill="none" xmlns="http://www.w3.org/2000/svg">
<g clip-path="url(#clip0)">
<path d="M96.774 4.74222C93.1478 2.89463 89.2157 2.52513 86.1952 2.41027L77.5276 2.07554C63.9237 1.54587 49.8565 0.998499 36.0143 0.69724C30.2751 0.565156 24.5359 0.959258 18.8687 1.87468C10.7065 3.20704 5.74207 8.08296 4.51406 15.9761C3.62866 21.6639 3.06997 27.3157 2.51012 34.051C2.18195 38.0133 2.00672 42.0524 1.83935 45.9589C1.77897 47.37 1.71627 48.7812 1.65108 50.1923C1.57297 51.8286 1.48302 53.4648 1.39245 55.1011C1.1647 59.2262 0.92909 63.4916 0.899555 67.6929C0.855581 73.8874 0.905468 80.1843 0.954037 86.2745C0.990791 90.8944 1.02878 95.6719 1.0255 100.369C1.01631 113.177 0.90406 125.81 0.807578 135.386C0.717153 139.797 1.24217 144.2 2.36718 148.467C3.93451 154.243 7.43597 157.853 13.0719 159.504C18.0135 160.954 23.3837 161.634 30.4833 161.711C36.3379 161.777 43.2163 161.833 50.583 161.833C56.5793 161.833 62.8973 161.795 69.2387 161.686C74.3877 161.599 79.6088 161.147 84.6626 160.71C86.2418 160.574 87.8216 160.437 89.4007 160.311C93.4891 159.983 96.5319 157.746 98.4438 153.658C99.1539 152.117 99.7473 150.525 100.22 148.896C102.833 140.03 103.229 130.781 103.395 122.81C103.624 111.736 103.733 100.474 103.838 89.5837C103.882 84.9381 103.93 80.2926 103.982 75.6477L103.873 75.3379C103.96 72.9928 104.053 70.6484 104.151 68.3033C104.371 62.88 104.599 57.2715 104.733 51.753C104.94 43.2719 105.048 34.6469 105.152 26.3062L105.21 21.7729C105.213 20.1883 105.134 18.6046 104.973 17.0282C104.455 11.3837 101.696 7.24941 96.774 4.74222ZM8.64501 136.994C17.3743 136.771 26.2349 136.391 34.8086 136.024C54.5473 135.179 74.9528 134.305 95.2782 135.268L95.2513 135.493C94.5628 141.331 93.9124 146.848 91.2313 151.73C90.5881 152.647 89.6442 153.31 88.5633 153.604C86.6605 154.194 84.6882 154.53 82.6969 154.6L75.6938 154.723C61.1041 154.98 46.0148 155.248 31.1823 155.219C24.9471 155.208 19.9255 154.458 15.3725 152.857C12.5692 151.872 10.9093 150.203 10.1604 147.606C9.1431 144.094 8.32668 140.861 8.64501 136.992V136.994ZM92.5433 127.918C75.3065 127.246 58.3002 128.046 42.3585 128.924C34.6137 129.349 26.7376 129.717 19.1188 130.072L12.434 130.385C11.6412 130.422 10.8267 130.414 9.88286 130.403C9.47593 130.399 9.04006 130.395 8.56487 130.393V129.158C8.56158 128.224 8.55903 127.426 8.57018 126.629C8.64717 121.327 8.71865 116.026 8.78474 110.724C8.94882 98.057 9.11947 84.9598 9.39316 72.0805C9.69114 58.0586 10.1506 44.1396 10.7591 30.7109C11.0148 26.8782 11.5026 23.0644 12.2195 19.2906C12.3429 18.5625 12.4648 17.8351 12.5856 17.1083C12.7801 15.5403 13.4607 14.0724 14.5319 12.9108C15.603 11.7493 17.0111 10.9522 18.5583 10.6316L19.4378 10.4045C21.3553 9.81831 23.3386 9.47367 25.3416 9.37857H25.3855C39.2854 9.43436 53.7137 9.59975 69.4947 9.88395C75.1044 9.98502 81.1919 10.2476 88.6512 10.7103C95.1955 11.1166 97.8741 13.8371 97.8964 20.1025C97.9423 32.785 97.7041 45.6819 97.4744 58.155L97.4251 60.8112C97.3267 66.1931 97.158 71.6637 96.9946 76.9571C96.8633 81.2626 96.7235 85.7152 96.625 90.0956C96.4439 98.1148 96.2969 106.27 96.1571 114.156C96.0836 118.258 96.0081 122.361 95.9313 126.464C95.9188 126.772 95.89 127.078 95.846 127.383C95.8263 127.542 95.8046 127.722 95.7803 127.928C95.4981 127.928 95.2179 127.933 94.9383 127.936C94.1139 127.938 93.3348 127.947 92.5433 127.916V127.918Z" fill="black"/>
<path d="M66.057 49.7667C62.0815 47.4748 57.6184 46.0997 51.586 45.3089C43.6535 44.2699 34.6276 47.9401 28.5952 54.6623C25.5978 57.923 23.4658 61.8832 22.3942 66.1806C21.3225 70.4781 21.3455 74.9753 22.461 79.2619C23.0263 81.3786 23.7325 83.4559 24.5746 85.4787C24.8837 86.2709 25.1954 87.0716 25.4934 87.8855C25.2144 87.835 24.9388 87.7831 24.6651 87.7326C23.6543 87.5442 22.6999 87.367 21.7227 87.22C19.7694 86.9279 17.1001 86.8104 16.4765 89.1568C15.9613 91.0996 16.9773 92.3473 19.984 93.4637C21.4641 94.0137 22.9901 94.5079 24.4656 94.9871C26.6597 95.6985 28.9286 96.431 31.0663 97.3578C32.0999 97.8303 33.2191 98.0863 34.3552 98.1112C35.2048 98.1217 36.0442 97.9242 36.8001 97.5363C38.4055 96.6975 39.5121 94.9812 39.9998 92.5724C40.7139 89.0426 41.1458 85.4006 41.5639 81.8787L41.8007 79.8998C41.8863 78.8497 41.7701 77.793 41.4581 76.7862C41.3875 76.3464 41.2125 75.9303 40.9479 75.5719C40.6833 75.2142 40.3369 74.9248 39.9374 74.7279C39.5538 74.6163 39.1484 74.6019 38.7578 74.6859C38.3672 74.7699 38.0036 74.9497 37.6999 75.209C36.4504 76.0379 35.455 77.1964 34.8239 78.5563C34.1839 80.1998 33.6576 81.8853 33.2486 83.6009C33.0681 84.2888 32.8877 84.9792 32.6921 85.6579C32.5556 86.1311 32.4294 86.6069 32.2719 87.1767L32.1683 87.556L32.068 87.4517C31.8658 87.2594 31.6837 87.0473 31.5244 86.8183C25.532 77.1445 25.9547 63.1357 38.3568 55.0772C45.1112 50.6876 52.4255 50.7309 61.3721 55.2084C63.0074 55.9936 64.4543 57.1221 65.6143 58.5169C66.7743 59.9117 67.6197 61.5401 68.0936 63.2912C70.5936 71.9673 69.9746 79.5749 66.2014 86.5466C65.3706 88.0266 64.6947 89.588 64.1844 91.2066C63.7768 92.5645 63.8622 93.5746 64.4384 94.2087C65.0147 94.8427 66.0301 95.031 67.4425 94.7501C69.7108 94.2999 71.0163 92.6604 71.9935 91.1153C77.9085 81.7697 78.5714 71.5125 74.08 58.8347C72.7483 55.0785 70.1236 52.1111 66.057 49.7667Z" fill="black"/>
<path d="M54.8441 148.773H54.9098C56.1838 148.746 57.3949 148.215 58.278 147.296C58.7293 146.858 59.088 146.334 59.3327 145.754C59.5775 145.174 59.7034 144.552 59.703 143.922C59.6374 141.362 57.5975 139.639 54.5009 139.534C53.8046 139.469 53.1023 139.549 52.4383 139.768C51.7742 139.987 51.1625 140.341 50.6415 140.807C50.2405 141.215 49.9285 141.702 49.7251 142.237C49.5218 142.772 49.4316 143.343 49.4603 143.915C49.5003 146.279 52.2155 148.73 54.8441 148.773Z" fill="black"/>
</g>
<defs>
<clipPath id="clip0">
<rect width="105.014" height="161.459" fill="white" transform="translate(0.648438 0.602295)"/>
</clipPath>
</defs>
</svg>

<svg xmlns="http://www.w3.org/2000/svg" width="106" height="163" fill="none" viewBox="0 0 106 163"><g fill="#000" clip-path="url(#a)"><path d="M96.774 4.742c-3.626-1.847-7.558-2.217-10.579-2.332l-8.667-.334C63.924 1.546 49.856.998 36.014.697A94 94 0 0 0 18.87 1.875C10.707 3.207 5.742 8.083 4.514 15.976 3.63 21.664 3.07 27.316 2.51 34.051c-.328 3.962-.503 8.001-.67 11.908q-.091 2.117-.189 4.233a647 647 0 0 1-.259 4.91C1.165 59.225.93 63.491.9 67.691c-.044 6.195.005 12.492.054 18.583.037 4.62.075 9.397.072 14.094-.01 12.808-.122 25.441-.218 35.017a47.5 47.5 0 0 0 1.56 13.081c1.567 5.776 5.068 9.386 10.704 11.037 4.942 1.45 10.312 2.13 17.411 2.207 5.855.066 12.733.122 20.1.122 5.996 0 12.314-.038 18.656-.147 5.149-.087 10.37-.539 15.424-.976 1.579-.136 3.159-.273 4.738-.399 4.088-.328 7.13-2.565 9.043-6.653a34 34 0 0 0 1.776-4.762c2.613-8.866 3.009-18.115 3.175-26.086.229-11.074.338-22.336.443-33.226q.066-6.969.144-13.936l-.109-.31q.13-3.517.278-7.035c.22-5.423.448-11.031.582-16.55.207-8.481.315-17.106.419-25.447l.058-4.533a46 46 0 0 0-.237-4.745c-.518-5.644-3.277-9.779-8.199-12.286M8.645 136.994c8.73-.223 17.59-.603 26.164-.97 19.738-.845 40.144-1.719 60.47-.756l-.028.225c-.688 5.838-1.339 11.355-4.02 16.237a4.8 4.8 0 0 1-2.668 1.874c-1.903.59-3.875.926-5.866.996l-7.003.123c-14.59.257-29.68.525-44.512.496-6.235-.011-11.256-.761-15.81-2.362-2.803-.985-4.463-2.654-5.212-5.251-1.017-3.512-1.833-6.745-1.515-10.614zm83.898-9.076c-17.237-.672-34.243.128-50.185 1.006-7.744.425-15.62.793-23.24 1.148l-6.684.313c-.793.037-1.607.029-2.551.018l-1.318-.01v-1.235c-.003-.934-.006-1.732.005-2.529q.116-7.953.215-15.905c.164-12.667.334-25.764.608-38.643.298-14.022.758-27.941 1.366-41.37a95 95 0 0 1 1.46-11.42q.186-1.093.367-2.183a7.57 7.57 0 0 1 5.972-6.476l.88-.227c1.917-.587 3.9-.931 5.904-1.026h.044c13.9.055 28.328.22 44.109.505 5.61.101 11.697.364 19.156.826 6.544.407 9.223 3.127 9.245 9.392.046 12.683-.192 25.58-.422 38.053l-.049 2.656c-.098 5.382-.267 10.853-.43 16.146-.132 4.306-.272 8.758-.37 13.139-.181 8.019-.328 16.174-.468 24.06q-.11 6.153-.226 12.308a9 9 0 0 1-.085.919l-.066.545q-.422.002-.842.008c-.824.002-1.603.011-2.395-.02z"/><path d="M66.057 49.767c-3.976-2.292-8.439-3.667-14.471-4.458-7.932-1.04-16.958 2.631-22.99 9.353a26.49 26.49 0 0 0-6.135 24.6 49 49 0 0 0 2.114 6.217c.309.792.62 1.593.918 2.406l-.828-.152a85 85 0 0 0-2.942-.513c-1.954-.292-4.623-.41-5.246 1.937-.516 1.943.5 3.19 3.507 4.307 1.48.55 3.006 1.044 4.482 1.523 2.194.712 4.463 1.444 6.6 2.37a8.35 8.35 0 0 0 3.29.754 5.2 5.2 0 0 0 2.444-.575c1.606-.838 2.712-2.555 3.2-4.964.714-3.53 1.146-7.171 1.564-10.693l.237-1.98a8.3 8.3 0 0 0-.343-3.113 2.79 2.79 0 0 0-1.52-2.058 2.41 2.41 0 0 0-2.238.481 8.1 8.1 0 0 0-2.876 3.347 38.5 38.5 0 0 0-1.575 5.045c-.18.688-.361 1.378-.557 2.057-.136.473-.263.949-.42 1.519l-.104.379-.1-.104a4 4 0 0 1-.544-.634c-5.992-9.674-5.57-23.682 6.833-31.74 6.754-4.39 14.069-4.347 23.015.13a12.63 12.63 0 0 1 6.722 8.083c2.5 8.676 1.88 16.284-1.893 23.256a24.7 24.7 0 0 0-2.017 4.66c-.407 1.358-.322 2.368.254 3.002s1.592.822 3.004.541c2.269-.45 3.574-2.09 4.552-3.635 5.915-9.345 6.577-19.602 2.086-32.28-1.332-3.757-3.956-6.724-8.023-9.068m-11.213 99.006h.066a4.8 4.8 0 0 0 3.368-1.477 4.7 4.7 0 0 0 1.425-3.374c-.066-2.56-2.106-4.283-5.202-4.388a5.08 5.08 0 0 0-3.86 1.273 4.14 4.14 0 0 0-1.18 3.108c.04 2.364 2.755 4.815 5.383 4.858"/></g><defs><clipPath id="a"><path fill="#fff" d="M.648.602h105.014v161.46H.648z"/></clipPath></defs></svg>
